X: 21272
T: O'ER THE MUIR TO KITTY	
Q: "Moderato"
%R: reel, Scots measure
B: "Edinburgh Repository of Music" v.2 p.127 #2
F: http://digital.nls.uk/special-collections-of-printed-music/pageturner.cfm?id=87776133
Z: 2015 John Chambers <jc:trillian.mit.edu>
M: C
L: 1/8
K: D
F>E |\
D3F A>BAF | A2d2 d3B | ABde gfed | e2E2 E2F>E |\
D3F A>BAF | A2d2 d3B | ABde fgef | d2D2 D2 :|
|: d>e |\
fedB ABdF | A2d2 d3F | G3A BAGF | E2e2 e2ag |\
fedf edce | dcB^A B=AGF | EFGE AGFE | D2d2 d2 :|
